X:8865
T:La Chandelle - bourree
C:Maxou Heintzen
N:abc transcription Simon Wascher
N:if you find an error in this transcription please inform simon.wascher@chello.at
M:3/8
L:1/16
K:G
GAB|cBcdcd|A2B2c2|B2BABc|
B3GAB|cBcdcd|A2B2c2|d2cBcd|1c3:|2c4Bc||
|:dcdefd|e2d2c2|dcBcBA|d4Bc|
dcdefd|e2d2c2|dcBdcB|1c4Bc:|2c3|]


